X:485
T:Granny's Delight. (p)1702.PLFD.485
M:4/4
L:1/4
Q:1/2=100
S:Playford, Dancing Master,Supp.to 11th Ed.,1702.
O:England
Z:Chris Partington.
K:F
c/B/|AFcA|BGgd|ece/f/g/e/|fF2:|
|:G/F/|EGcG|AGcG|edgd|ec2B/A/|
Bfcf|AfGf|cfe/f/g/e/|af2:|
